X:7843
T:Morsgrisar
C:anon.
O:Sweden
R:Jullek, nursery song, polska
Z:Transcribed by Frank Nordberg - http://www.musicaviva.com
F:http://abc.musicaviva.com/tunes/sweden/morsgrisar.abc
M:3/4
L:1/8
K:C
"C"G2 GA GF|"C"EF G2 E2|"G7"DE F2 D2|"C"CD E2 C2|
"C"G2 GA GF|"C"EF G2 E2|"G7"DE F2 D2|"C"G2 C4||
"C"c2 G3 F|"C"E2 C4|"C"c2 G3 F|"C"E2 C4||
"C"G2 GA GF|"C"EF G2 E2|"G7"DE F2 D2|"C"CD E2 C2|
"C"G2 GA GF|"C"EF G2 E2|"G7"DE F2 D2|"C"G2 C4|]
W:
W:
W:  From Musica Viva - http://www.musicaviva.com
W:  the Internet center for free sheet music downloads.
